X:1
T:The Old Rugged Cross
T:The Old Rugged Cross
T:George Bennard
T:George Bennard, 1913
T:Public Domain Courtesy of the Cyber Hymnal™
T:Public Domain Courtesy of the Cyber Hymnal™
C:George Bennard
Z:Public Domain
Z:Courtesy of the Cyber Hymnal™
%%score ( 1 2 ) 3
L:1/8
Q:1/4=50
M:6/8
K:Bb
V:1 treble 
V:2 treble 
V:3 bass 
V:1
 [B,D]/[CE]/ | [DF]>[^C=E][CG] [DF]2 [DF]/[DF]/ | [EG]>[E^F][EA] [EG]2 ([=EG]/[EG]/) | %3
w: 1.~On a|hill far a- way stood an|old rug- ged cross, The *|
w: 2.~Oh, that|old rug- ged cross so de-|spised by the world, Has~a *|
w: 3.~In the|old rug- ged cross, stained with|blood so di- vine, A~ *|
w: 4.~To the|old rug- ged cross I will|ev- er be true, Its *|
 [EA]>[EG][DF] [CE][CF][CE] | [B,D]3- [B,D]2 [B,D]/[CE]/ | [DF]>[^C=E][CG] [DF]2 [DF]/[DF]/ | %6
w: em- blem of suf- fering and|shame; * And I|love that old cross where the|
w: wond- rous at- tract- ion for|me; * For the|dear Lamb of God left His|
w: wo- nd- rous beau- ty I|see; * For ’twas|on that old cross Je- sus|
w: shame and re- proach glad- ly|bear; * Then He’ll|call me some day to my|
 [EG]>[E^F][EA] [EG]2 ([=EG]/[EG]/) | [EA]>[EG][EF] [Ge][Fd][Ec] | [DB]4 ||"^Refrain" [CA]/[DB]/ | %10
w: dear- est and best For~a *|world of lost sin- ners was|slain.||
w: glo- ry a- bove, To *|bear it to dark Cal- va-|ry.||
w: suf- fered and died, To *|par- don and sanc- ti- fy|me.||
w: home far a- way, Where~His *|glo- ry for- ev- er I’ll|share.||
 [Ec]>[Ec][Ec] cB[EA] | B3- [DB]2 [FB]/[FA]/ | [EG]>[EG][EG] [GB][FA][EG] | %13
w: |||
w: |||
w: |||
w: |||
 [DF]3- [DF]2 [DF]/[DB]/ | [Fd]>[Fd][Fd] [Fd][Ge][Fd] | G3- [EG]2 [Ge]/[Ge]/ | %16
w: |||
w: |||
w: |||
w: |||
 [Fd]>[Ec][DB] [EF][EA][Ec] | [DB]3- [DB]2 |] %18
w: ||
w: ||
w: ||
w: ||
V:2
 x | x6 | x6 | x6 | x6 | x6 | x6 | x6 | x4 || x | x3 E2 x | D^CE x3 | x6 | x6 | x6 | EEE x3 | x6 | %17
 x5 |] %18
V:3
 [B,,F,]/[B,,F,]/ | [B,,B,]>[B,,B,][B,,G,] [B,,B,]2 [B,,B,]/[B,,B,]/ | %2
w: ~ ~|~ ~ ~ ~ ~ ~|
 [E,B,]>[E,A,][E,C] [E,B,]2 ([C,C]/[C,C]/) | [F,C]>[F,A,][F,B,] [F,A,][F,A,]F, | %4
w: ~ ~ ~ ~ ~ *|~ ~ ~ ~ ~ ~|
 [B,,F,]3- [B,,F,]2 [B,,F,]/[B,,F,]/ | [B,,B,]>[B,,B,][B,,G,] [B,,B,]2 [B,,B,]/[B,,B,]/ | %6
w: ~ * ~ ~|~ ~ ~ ~ ~ ~|
 [E,B,]>[E,A,][E,C] [E,B,]2 ([C,C]/[C,C]/) | [F,C]>[F,B,][F,A,] [F,A,][F,B,][F,A,] | [B,,B,]4 || %9
w: ~ ~ ~ ~ ~ *|~ ~ ~ ~ ~ ~|~|
 F,/F,/ | [F,A,]>[F,A,][F,A,] [F,A,]2 F, | ([B,,F,][B,,=E,][B,,G,] [B,,F,]2) [D,B,]/[D,B,]/ | %12
w: So I’ll|cher- ish the old~rug- ged|cross * * * Till my|
 [E,B,]>[E,B,][E,B,] [E,B,][E,B,][E,B,] | [B,,B,]3- [B,,B,]2 [B,,B,]/[B,,B,]/ | %14
w: tro- phies at last I lay|down; * I will|
 [B,,B,]>[B,,B,][B,,B,] [B,,B,]2 [B,,B,] | ([E,B,][E,B,][E,B,] [E,B,]2) [E,B,]/[E,B,]/ | %16
w: cling to the old~rug- ged|cross * * * And ex-|
 [F,B,]>[F,A,][F,B,] [F,A,][F,C]F, | [B,,F,]3- [B,,F,]2 |] %18
w: change it some day for a|crown. *|

